build/assets/images/svg/icons/lk/personal_account/cheque.svg

<svg width="48" height="48" viewBox="0 0 48 48" fill="none" xmlns="http://www.w3.org/2000/svg">
<rect width="48" height="48" rx="24" fill="#F4F7FB"/>
<path d="M20 18C19.4477 18 19 18.4477 19 19C19 19.5523 19.4477 20 20 20H28C28.5523 20 29 19.5523 29 19C29 18.4477 28.5523 18 28 18H20Z" fill="#203686"/>
<path d="M19 24C19 23.4477 19.4477 23 20 23H28C28.5523 23 29 23.4477 29 24C29 24.5523 28.5523 25 28 25H20C19.4477 25 19 24.5523 19 24Z" fill="#203686"/>
<path d="M20 28C19.4477 28 19 28.4477 19 29C19 29.5523 19.4477 30 20 30H22.6667C23.219 30 23.6667 29.5523 23.6667 29C23.6667 28.4477 23.219 28 22.6667 28H20Z" fill="#203686"/>
<path d="M25.3333 28C24.781 28 24.3333 28.4477 24.3333 29C24.3333 29.5523 24.781 30 25.3333 30H28C28.5523 30 29 29.5523 29 29C29 28.4477 28.5523 28 28 28H25.3333Z" fill="#203686"/>
<path fill-rule="evenodd" clip-rule="evenodd" d="M27.4818 33.9012C27.5942 33.9293 27.7033 33.9697 27.8069 34.0215C30.1928 35.2144 33 33.4795 33 30.812V17C33 14.7909 31.2091 13 29 13H19C16.7909 13 15 14.7909 15 17V30.812C15 33.4795 17.8072 35.2144 20.1931 34.0215C20.2967 33.9697 20.4058 33.9293 20.5182 33.9012L23.5149 33.152C23.8334 33.0724 24.1666 33.0724 24.4851 33.152L27.4818 33.9012ZM17 17C17 15.8954 17.8954 15 19 15H29C30.1046 15 31 15.8954 31 17V30.812C31 31.9927 29.7574 32.7607 28.7013 32.2326C28.4672 32.1156 28.2209 32.0244 27.9669 31.9609L24.9701 31.2118C24.3332 31.0525 23.6668 31.0525 23.0299 31.2118L20.0331 31.9609C19.7791 32.0244 19.5328 32.1156 19.2987 32.2326C18.2426 32.7607 17 31.9927 17 30.812V17Z" fill="#203686"/>
</svg>

<svg width="48" height="48" fill="none" xmlns="http://www.w3.org/2000/svg"><rect width="48" height="48" rx="24" fill="#F4F7FB"/><path d="M20 18a1 1 0 100 2h8a1 1 0 100-2h-8zm-1 6a1 1 0 011-1h8a1 1 0 110 2h-8a1 1 0 01-1-1zm1 4a1 1 0 100 2h2.667a1 1 0 100-2H20zm5.333 0a1 1 0 100 2H28a1 1 0 100-2h-2.667z" fill="#203686"/><path fill-rule="evenodd" clip-rule="evenodd" d="M27.482 33.901c.112.028.221.069.325.12C30.193 35.215 33 33.48 33 30.813V17a4 4 0 00-4-4H19a4 4 0 00-4 4v13.812c0 2.668 2.807 4.402 5.193 3.21a1.59 1.59 0 01.325-.12l2.997-.75a2 2 0 01.97 0l2.997.75zM17 17a2 2 0 012-2h10a2 2 0 012 2v13.812a1.588 1.588 0 01-2.299 1.42 3.591 3.591 0 00-.734-.271l-2.997-.75a3.998 3.998 0 00-1.94 0l-2.997.75c-.254.063-.5.155-.734.272A1.588 1.588 0 0117 30.812V17z" fill="#203686"/></svg>
